assets/svg/1F472.svg

<svg xmlns="http://www.w3.org/2000/svg" viewBox="0 0 64 64" enable-background="new 0 0 64 64"><path fill="#25333a" d="m5.881 57.832c-1.059 3.143 9.05 10.666 7.386-9.06-1.506-17.891 4.548-34.26 1.607-36.979-2.939-2.708-7.934 42.901-8.993 46.04"/><g fill="#e8a041"><path d="m12.542 29.366c-2.508-.063-4.617 3.188-4.739 8.26-.126 5.07 1.821 8.422 4.327 8.482 2.501.062 8.765-3.085 8.889-8.159.126-5.07-5.969-8.524-8.477-8.583"/><path d="m53.734 29.536c2.504.067 4.443 3.426 4.306 8.497-.139 5.066-2.256 8.315-4.763 8.248-2.504-.071-8.592-3.541-8.457-8.61.142-5.072 6.407-8.202 8.914-8.135"/></g><g fill="#fbb042"><path d="m55.09 41.05c-.391 15.07-10.468 22.359-22.663 22.04-12.193-.315-21.88-8.11-21.49-23.18.39-15.07 10.708-31.712 22.906-31.396 12.19.315 21.637 17.47 21.247 32.539"/><path d="m47.25 50.05c-.249 9.545-6.853 14.15-14.853 13.945-7.999-.205-14.358-5.153-14.11-14.694.249-9.546 7.01-20.08 15.01-19.872 8 .205 14.206 11.08 13.958 20.621"/></g><path fill="#e8a041" d="m29.746 42.621c.04-1.525 1.436-5.342 3.206-5.295 1.767.048 3.241 3.938 3.202 5.459-.04 1.527-1.507 2.727-3.276 2.679-1.771-.043-3.173-1.317-3.132-2.843"/><path fill="#a52e43" d="m58.26 18.456c-.257 9.794-10.04 9.361-23.393 9.02-13.354-.347-25.23-.477-24.977-10.272.254-9.814 11.286-17.478 24.646-17.13 13.355.346 23.976 8.566 23.724 18.384"/><path fill="#df394c" d="m60.29 26.427c-.178 6.858-10.831 6.46-25.383 6.082-14.548-.375-27.483-.588-27.306-7.448.177-6.873 12.12-12.133 26.671-11.755 14.548.374 26.2 6.246 26.02 13.12"/><path fill="#08a69b" d="m41.784 25.4c-.106 4.1-3.931 7.321-8.54 7.199l0 0c-4.608-.118-8.259-3.533-8.152-7.629l.552-21.276c.104-4.094 3.836-3.753 8.444-3.636l0 0c4.609.12 8.351-.025 8.244 4.07l-.548 21.272"/><path fill="#e0cf35" d="m37.432 27.557l3.563-3.837-4.865-.922-2.08-5.154-2.3 5.059-4.904.717 3.364 3.949z"/><g fill="#774a25"><path d="m27.938 37.2c-.15-.004-2.917-1.151-5.743-1.225-2.521-.064-5.092.944-5.802.923-.611-.014-.822-.731-.441-1.146 3.481-3.812 9.21-3.663 12.486.323.36.436.111 1.141-.5 1.125"/><path d="m49.13 37.744c-.153-.006-2.921-1.151-5.744-1.222-2.523-.065-5.094.942-5.8.922-.615-.014-.824-.733-.441-1.146 3.478-3.809 9.206-3.663 12.482.323.358.436.114 1.139-.497 1.123"/><path d="m44.02 47c-.556-.016-1.111-.032-1.672-.044-.087-.004-.149.028-.225.04-.087.012-.169.012-.256.043-.146.052-.265.13-.371.229-.023.021-.047.021-.07.044-4.145 3.832-9.463 4.597-14.443 1.872-2.671-1.464-2.419-2.688-5.317-2.764-1.187-.031-1.664 1.337-.97 2.177 6.348 7.72 17.441 8.01 24.18.627.738-.807.332-2.193-.855-2.224"/></g></svg>

<?xml version="1.0" encoding="UTF-8" standalone="no"?>
<!-- Generator: Adobe Illustrator 16.0.0, SVG Export Plug-In . SVG Version: 6.00 Build 0)  -->

<svg
   xmlns:dc="http://purl.org/dc/elements/1.1/"
   xmlns:cc="http://creativecommons.org/ns#"
   xmlns:rdf="http://www.w3.org/1999/02/22-rdf-syntax-ns#"
   xmlns:svg="http://www.w3.org/2000/svg"
   xmlns="http://www.w3.org/2000/svg"
   xmlns:sodipodi="http://sodipodi.sourceforge.net/DTD/sodipodi-0.dtd"
   xmlns:inkscape="http://www.inkscape.org/namespaces/inkscape"
   version="1.1"
   id="Layer_1"
   x="0px"
   y="0px"
   width="64px"
   height="64px"
   viewBox="0 0 64 64"
   enable-background="new 0 0 64 64"
   xml:space="preserve"
   inkscape:version="0.48.5 r10040"
   sodipodi:docname="1F472.svg"
   inkscape:export-filename="D:\TESTINGEMOJI\SVGTEST\1F472.png"
   inkscape:export-xdpi="90"
   inkscape:export-ydpi="90"><metadata
   id="metadata3811"><rdf:RDF><cc:Work
       rdf:about=""><dc:format>image/svg+xml</dc:format><dc:type
         rdf:resource="http://purl.org/dc/dcmitype/StillImage" /><dc:title></dc:title></cc:Work></rdf:RDF></metadata><defs
   id="defs3809" /><sodipodi:namedview
   pagecolor="#ffffff"
   bordercolor="#666666"
   borderopacity="1"
   objecttolerance="10"
   gridtolerance="10"
   guidetolerance="10"
   inkscape:pageopacity="0"
   inkscape:pageshadow="2"
   inkscape:window-width="640"
   inkscape:window-height="480"
   id="namedview3807"
   showgrid="false"
   inkscape:zoom="3.6875"
   inkscape:cx="32"
   inkscape:cy="32"
   inkscape:window-x="468"
   inkscape:window-y="329"
   inkscape:window-maximized="0"
   inkscape:current-layer="Layer_1" />
<g
   id="g3755">
	<path
   fill="#25333A"
   d="M5.881,57.832c-1.059,3.143,9.046,10.666,7.386-9.064c-1.506-17.891,4.548-34.262,1.607-36.979   C11.935,9.081,6.94,54.69,5.881,57.832z"
   id="path3757" />
</g>
<g
   id="g3759">
	<path
   fill="#E8A041"
   d="M12.542,29.366c-2.508-0.063-4.617,3.188-4.739,8.26c-0.126,5.07,1.821,8.422,4.327,8.482   c2.501,0.062,8.765-3.085,8.889-8.159C21.145,32.879,15.05,29.425,12.542,29.366z"
   id="path3761" />
</g>
<g
   id="g3763">
	<path
   fill="#E8A041"
   d="M53.734,29.536c2.504,0.067,4.443,3.426,4.306,8.497c-0.139,5.066-2.256,8.315-4.763,8.248   c-2.504-0.071-8.592-3.541-8.457-8.61C44.962,32.599,51.227,29.469,53.734,29.536z"
   id="path3765" />
</g>
<g
   id="g3767">
	<path
   fill="#FBB042"
   d="M55.087,41.048c-0.391,15.073-10.468,22.359-22.663,22.04c-12.193-0.315-21.88-8.11-21.49-23.183   C11.324,24.836,21.642,8.193,33.84,8.509C46.03,8.824,55.477,25.979,55.087,41.048z"
   id="path3769" />
</g>
<g
   id="g3771">
	<path
   fill="#FBB042"
   d="M47.253,50.05C47.004,59.595,40.4,64.203,32.4,63.995c-7.999-0.205-14.358-5.153-14.11-14.694   c0.249-9.546,7.006-20.081,15.005-19.872C41.295,29.634,47.501,40.504,47.253,50.05z"
   id="path3773" />
</g>
<g
   id="g3775">
	<path
   fill="#E8A041"
   d="M29.746,42.621c0.04-1.525,1.436-5.342,3.206-5.295c1.767,0.048,3.241,3.938,3.202,5.459   c-0.04,1.527-1.507,2.727-3.276,2.679C31.107,45.421,29.705,44.147,29.746,42.621z"
   id="path3777" />
</g>
<g
   id="g3779">
	<path
   fill="#A52E43"
   d="M58.257,18.456C58,28.25,48.219,27.817,34.864,27.474C21.51,27.127,9.633,26.997,9.887,17.202   c0.254-9.814,11.286-17.478,24.646-17.13C47.888,0.418,58.509,8.638,58.257,18.456z"
   id="path3781" />
</g>
<g
   id="g3783">
	<path
   fill="#DF394C"
   d="M60.291,26.427c-0.178,6.858-10.831,6.46-25.383,6.082C20.36,32.134,7.425,31.921,7.602,25.061   c0.177-6.873,12.12-12.133,26.671-11.755C48.821,13.68,60.469,19.552,60.291,26.427z"
   id="path3785" />
</g>
<g
   id="g3787">
	<path
   fill="#08A69B"
   d="M41.784,25.4c-0.106,4.1-3.931,7.321-8.54,7.199l0,0c-4.608-0.118-8.259-3.533-8.152-7.629l0.552-21.276   c0.104-4.094,3.836-3.753,8.444-3.636l0,0c4.609,0.12,8.351-0.025,8.244,4.07L41.784,25.4z"
   id="path3789" />
</g>
<g
   id="g3791">
	<polygon
   fill="#E0CF35"
   points="37.432,27.557 40.995,23.72 36.126,22.798 34.053,17.644 31.75,22.703 26.846,23.42 30.209,27.369     "
   id="polygon3793" />
</g>
<g
   id="g3795">
	<path
   fill="#774A25"
   d="M27.938,37.196c-0.15-0.004-2.917-1.151-5.743-1.225c-2.521-0.064-5.092,0.944-5.802,0.923   c-0.611-0.014-0.822-0.731-0.441-1.146c3.481-3.812,9.21-3.663,12.486,0.323C28.798,36.507,28.549,37.212,27.938,37.196z"
   id="path3797" />
</g>
<g
   id="g3799">
	<path
   fill="#774A25"
   d="M49.133,37.744c-0.153-0.006-2.921-1.151-5.744-1.222c-2.523-0.065-5.094,0.942-5.8,0.922   c-0.615-0.014-0.824-0.733-0.441-1.146c3.478-3.809,9.206-3.663,12.482,0.323C49.988,37.057,49.744,37.76,49.133,37.744z"
   id="path3801" />
</g>
<g
   id="g3803">
	<path
   fill="#774A25"
   d="M44.023,47.002c-0.556-0.016-1.111-0.032-1.672-0.044c-0.087-0.004-0.149,0.028-0.225,0.04   c-0.087,0.012-0.169,0.012-0.256,0.043c-0.146,0.052-0.265,0.13-0.371,0.229c-0.023,0.021-0.047,0.021-0.07,0.044   c-4.145,3.832-9.463,4.597-14.443,1.872c-2.671-1.464-2.419-2.688-5.317-2.764c-1.187-0.031-1.664,1.337-0.97,2.177   c6.348,7.72,17.441,8.006,24.179,0.627C45.616,48.419,45.21,47.033,44.023,47.002z"
   id="path3805" />
</g>
</svg>
